Numix-Light/16/status/indicator-keyboard-Hy-6.svg

<?xml version="1.0" encoding="UTF-8" standalone="no"?>
<svg
   xmlns:dc="http://purl.org/dc/elements/1.1/"
   xmlns:cc="http://creativecommons.org/ns#"
   xmlns:rdf="http://www.w3.org/1999/02/22-rdf-syntax-ns#"
   xmlns:svg="http://www.w3.org/2000/svg"
   xmlns="http://www.w3.org/2000/svg"
   xmlns:sodipodi="http://sodipodi.sourceforge.net/DTD/sodipodi-0.dtd"
   xmlns:inkscape="http://www.inkscape.org/namespaces/inkscape"
   viewBox="0 0 16 16"
   id="svg2"
   version="1.1"
   inkscape:version="0.91 r13725"
   sodipodi:docname="indicator-keyboard-Hy-6.svg">
  <metadata
     id="metadata14">
    <rdf:RDF>
      <cc:Work
         rdf:about="">
        <dc:format>image/svg+xml</dc:format>
        <dc:type
           rdf:resource="http://purl.org/dc/dcmitype/StillImage" />
      </cc:Work>
    </rdf:RDF>
  </metadata>
  <defs
     id="defs12" />
  <sodipodi:namedview
     pagecolor="#ffffff"
     bordercolor="#666666"
     borderopacity="1"
     objecttolerance="10"
     gridtolerance="10"
     guidetolerance="10"
     inkscape:pageopacity="0"
     inkscape:pageshadow="2"
     inkscape:window-width="640"
     inkscape:window-height="480"
     id="namedview10"
     showgrid="false"
     inkscape:zoom="14.75"
     inkscape:cx="8"
     inkscape:cy="8"
     inkscape:window-x="65"
     inkscape:window-y="24"
     inkscape:window-maximized="0"
     inkscape:current-layer="svg2" />
  <path
     style="fill:#353535;fill-opacity:1"
     d="M 1.5996094 0 C 0.71320937 2.9605947e-16 0 0.71320937 0 1.5996094 L 0 14.400391 C 2.9605947e-16 15.286791 0.71320937 16 1.5996094 16 L 14.400391 16 C 15.286791 16 16 15.286791 16 14.400391 L 16 1.5996094 C 16 0.71320937 15.286791 0 14.400391 0 L 1.5996094 0 z M 1.6835938 4.859375 L 2.2949219 4.859375 L 2.2949219 7.5683594 L 5.6796875 7.5683594 L 5.6796875 4.859375 L 6.2910156 4.859375 L 6.2910156 11.095703 L 5.6796875 11.095703 L 5.6796875 8.0996094 L 2.2949219 8.0996094 L 2.2949219 11.095703 L 1.6835938 11.095703 L 1.6835938 4.859375 z M 7.2773438 6.4433594 L 7.8964844 6.4433594 C 7.9624844 6.7313594 8.0464375 7.0429063 8.1484375 7.3789062 C 8.2504375 7.7089062 8.3661875 8.0502969 8.4921875 8.4042969 C 8.6241875 8.7582969 8.7678281 9.1221406 8.9238281 9.4941406 C 9.0798281 9.8661408 9.2477344 10.231797 9.4277344 10.591797 C 9.5597344 10.219797 9.6772969 9.8690627 9.7792969 9.5390625 C 9.8812969 9.2090625 9.9726406 8.8825937 10.056641 8.5585938 C 10.146641 8.2285937 10.230594 7.8927813 10.308594 7.5507812 C 10.392594 7.2087813 10.480313 6.8393594 10.570312 6.4433594 L 11.15625 6.4433594 C 10.96425 7.3133594 10.744047 8.1584688 10.498047 8.9804688 C 10.252047 9.8024689 9.9852656 10.556234 9.6972656 11.240234 C 9.5832656 11.510234 9.4657031 11.741594 9.3457031 11.933594 C 9.2257031 12.131594 9.0914062 12.293922 8.9414062 12.419922 C 8.7974062 12.545922 8.6257344 12.637266 8.4277344 12.697266 C 8.2357344 12.757266 8.0081406 12.787109 7.7441406 12.787109 C 7.5941406 12.787109 7.4560781 12.770375 7.3300781 12.734375 C 7.2100781 12.698375 7.1354687 12.670344 7.1054688 12.652344 L 7.2226562 12.167969 C 7.2466563 12.185969 7.3119219 12.208281 7.4199219 12.238281 C 7.5339219 12.274281 7.6514844 12.292969 7.7714844 12.292969 C 7.9394844 12.292969 8.0887031 12.274281 8.2207031 12.238281 C 8.3587031 12.202281 8.4818437 12.140781 8.5898438 12.050781 C 8.6978438 11.966781 8.7949063 11.854797 8.8789062 11.716797 C 8.9689062 11.578797 9.0546719 11.405312 9.1386719 11.195312 C 8.9406719 10.829313 8.7485 10.448734 8.5625 10.052734 C 8.3825 9.6567342 8.2127812 9.2574687 8.0507812 8.8554688 C 7.8947813 8.4474688 7.7511406 8.042625 7.6191406 7.640625 C 7.4871406 7.232625 7.3733437 6.8333594 7.2773438 6.4433594 z M 14.046875 8.8242188 L 14.070312 9.1464844 C 13.832413 9.1620844 13.612956 9.1993125 13.410156 9.2578125 C 13.211256 9.3124125 13.032953 9.4005844 12.876953 9.5214844 C 12.720953 9.6384843 12.589675 9.7893625 12.484375 9.9765625 C 12.379075 10.163763 12.308531 10.394969 12.269531 10.667969 C 12.374831 10.613369 12.500237 10.566344 12.648438 10.527344 C 12.796638 10.484444 12.955347 10.462891 13.123047 10.462891 C 13.341447 10.462891 13.525634 10.498159 13.677734 10.568359 C 13.829834 10.634659 13.953275 10.722838 14.046875 10.835938 C 14.140475 10.949038 14.209053 11.080316 14.251953 11.228516 C 14.294853 11.376716 14.316406 11.533466 14.316406 11.697266 C 14.316406 11.849366 14.292894 12.000244 14.246094 12.152344 C 14.199294 12.304444 14.124838 12.443559 14.023438 12.568359 C 13.925938 12.689259 13.800537 12.789187 13.648438 12.867188 C 13.500237 12.945188 13.323887 12.984375 13.117188 12.984375 C 12.692087 12.984375 12.368784 12.835463 12.146484 12.539062 C 11.928084 12.238762 11.818359 11.821409 11.818359 11.287109 C 11.818359 10.495409 12.008419 9.8958281 12.386719 9.4863281 C 12.768919 9.0768281 13.321475 8.8554188 14.046875 8.8242188 z M 13.087891 10.794922 C 12.908491 10.794922 12.749781 10.816475 12.613281 10.859375 C 12.480681 10.898375 12.357234 10.9454 12.240234 11 C 12.232434 11.0663 12.228516 11.119203 12.228516 11.158203 L 12.228516 11.292969 C 12.228516 11.476269 12.240272 11.650653 12.263672 11.814453 C 12.290972 11.978253 12.336044 12.121294 12.402344 12.246094 C 12.472544 12.370894 12.564634 12.470822 12.677734 12.544922 C 12.790834 12.615122 12.935828 12.650391 13.111328 12.650391 C 13.255628 12.650391 13.379069 12.624919 13.480469 12.574219 C 13.581869 12.519619 13.662209 12.449081 13.724609 12.363281 C 13.787009 12.277481 13.832075 12.177553 13.859375 12.064453 C 13.890575 11.951353 13.90625 11.833784 13.90625 11.708984 C 13.90625 11.396984 13.835712 11.165778 13.695312 11.017578 C 13.558812 10.869378 13.356991 10.794922 13.087891 10.794922 z "
     id="path4" />
</svg>

<svg xmlns="http://www.w3.org/2000/svg" viewBox="0 0 16 16">
 <path d="m 1.6 0 c -0.886 0 -1.6 0.713 -1.6 1.6 l 0 12.801 c 0 0.886 0.713 1.6 1.6 1.6 l 12.801 0 c 0.886 0 1.6 -0.713 1.6 -1.6 l 0 -12.801 c 0 -0.886 -0.713 -1.6 -1.6 -1.6 l -12.801 0 z m 0.084 4.859 l 0.611 0 l 0 2.709 l 3.385 0 l 0 -2.709 l 0.611 0 l 0 6.236 l -0.611 0 l 0 -2.996 l -3.385 0 l 0 2.996 l -0.611 0 l 0 -6.236 z m 5.594 1.584 l 0.619 0 c 0.066 0.288 0.15 0.6 0.252 0.936 c 0.102 0.33 0.218 0.671 0.344 1.025 c 0.132 0.354 0.276 0.718 0.432 1.09 c 0.156 0.372 0.324 0.738 0.504 1.098 c 0.132 -0.372 0.25 -0.723 0.352 -1.053 c 0.102 -0.33 0.193 -0.656 0.277 -0.98 c 0.09 -0.33 0.174 -0.666 0.252 -1.01 c 0.084 -0.342 0.172 -0.711 0.262 -1.107 l 0.586 0 c -0.192 0.87 -0.412 1.715 -0.658 2.537 c -0.246 0.822 -0.513 1.576 -0.801 2.26 c -0.114 0.27 -0.232 0.501 -0.352 0.693 c -0.12 0.198 -0.254 0.36 -0.404 0.486 c -0.144 0.126 -0.316 0.217 -0.514 0.277 c -0.192 0.06 -0.42 0.09 -0.684 0.09 c -0.15 0 -0.288 -0.017 -0.414 -0.053 c -0.12 -0.036 -0.195 -0.064 -0.225 -0.082 l 0.117 -0.484 c 0.024 0.018 0.089 0.04 0.197 0.07 c 0.114 0.036 0.232 0.055 0.352 0.055 c 0.168 0 0.317 -0.019 0.449 -0.055 c 0.138 -0.036 0.261 -0.098 0.369 -0.188 c 0.108 -0.084 0.205 -0.196 0.289 -0.334 c 0.09 -0.138 0.176 -0.311 0.26 -0.521 c -0.198 -0.366 -0.39 -0.747 -0.576 -1.143 c -0.18 -0.396 -0.35 -0.795 -0.512 -1.197 c -0.156 -0.408 -0.3 -0.813 -0.432 -1.215 c -0.132 -0.408 -0.246 -0.807 -0.342 -1.197 z m 6.77 2.381 l 0.023 0.322 c -0.238 0.016 -0.457 0.053 -0.66 0.111 c -0.199 0.055 -0.377 0.143 -0.533 0.264 c -0.156 0.117 -0.287 0.268 -0.393 0.455 c -0.105 0.187 -0.176 0.418 -0.215 0.691 c 0.105 -0.055 0.231 -0.102 0.379 -0.141 c 0.148 -0.043 0.307 -0.064 0.475 -0.064 c 0.218 0 0.403 0.035 0.555 0.105 c 0.152 0.066 0.276 0.154 0.369 0.268 c 0.094 0.113 0.162 0.244 0.205 0.393 c 0.043 0.148 0.064 0.305 0.064 0.469 c 0 0.152 -0.024 0.303 -0.07 0.455 c -0.047 0.152 -0.121 0.291 -0.223 0.416 c -0.098 0.121 -0.223 0.221 -0.375 0.299 c -0.148 0.078 -0.325 0.117 -0.531 0.117 c -0.425 0 -0.748 -0.149 -0.971 -0.445 c -0.218 -0.3 -0.328 -0.718 -0.328 -1.252 c 0 -0.792 0.19 -1.391 0.568 -1.801 c 0.382 -0.409 0.935 -0.631 1.66 -0.662 z m -0.959 1.971 c -0.179 0 -0.338 0.022 -0.475 0.064 c -0.133 0.039 -0.256 0.086 -0.373 0.141 c -0.008 0.066 -0.012 0.119 -0.012 0.158 l 0 0.135 c 0 0.183 0.012 0.358 0.035 0.521 c 0.027 0.164 0.072 0.307 0.139 0.432 c 0.07 0.125 0.162 0.225 0.275 0.299 c 0.113 0.07 0.258 0.105 0.434 0.105 c 0.144 0 0.268 -0.025 0.369 -0.076 c 0.101 -0.055 0.182 -0.125 0.244 -0.211 c 0.062 -0.086 0.107 -0.186 0.135 -0.299 c 0.031 -0.113 0.047 -0.231 0.047 -0.355 c 0 -0.312 -0.071 -0.543 -0.211 -0.691 c -0.136 -0.148 -0.338 -0.223 -0.607 -0.223 z" style="fill:#353535;fill-opacity:1"/>
</svg>
